icons/circle/48/kompare.svg

<svg xmlns="http://www.w3.org/2000/svg" viewBox="0 0 48 48">
 <defs>
  <linearGradient id="linearGradient4192" y1="47" x2="0" y2="1" gradientUnits="userSpaceOnUse">
   <stop style="stop-color:#c23257;stop-opacity:1"/>
   <stop offset="1" style="stop-color:#cd3b61;stop-opacity:1"/>
  </linearGradient>
 </defs>
 <g>
  <path d="m 36.31 5 c 5.859 4.062 9.688 10.831 9.688 18.5 c 0 12.426 -10.07 22.5 -22.5 22.5 c -7.669 0 -14.438 -3.828 -18.5 -9.688 c 1.037 1.822 2.306 3.499 3.781 4.969 c 4.085 3.712 9.514 5.969 15.469 5.969 c 12.703 0 23 -10.298 23 -23 c 0 -5.954 -2.256 -11.384 -5.969 -15.469 c -1.469 -1.475 -3.147 -2.744 -4.969 -3.781 z m 4.969 3.781 c 3.854 4.113 6.219 9.637 6.219 15.719 c 0 12.703 -10.297 23 -23 23 c -6.081 0 -11.606 -2.364 -15.719 -6.219 c 4.16 4.144 9.883 6.719 16.219 6.719 c 12.703 0 23 -10.298 23 -23 c 0 -6.335 -2.575 -12.06 -6.719 -16.219 z" style="opacity:0.05"/>
  <path d="m 41.28 8.781 c 3.712 4.085 5.969 9.514 5.969 15.469 c 0 12.703 -10.297 23 -23 23 c -5.954 0 -11.384 -2.256 -15.469 -5.969 c 4.113 3.854 9.637 6.219 15.719 6.219 c 12.703 0 23 -10.298 23 -23 c 0 -6.081 -2.364 -11.606 -6.219 -15.719 z" style="opacity:0.1"/>
  <path d="m 31.25 2.375 c 8.615 3.154 14.75 11.417 14.75 21.13 c 0 12.426 -10.07 22.5 -22.5 22.5 c -9.708 0 -17.971 -6.135 -21.12 -14.75 a 23 23 0 0 0 44.875 -7 a 23 23 0 0 0 -16 -21.875 z" style="opacity:0.2"/>
 </g>
 <path d="M 24,1 C 36.703,1 47,11.297 47,24 47,36.703 36.703,47 24,47 11.297,47 1,36.703 1,24 1,11.297 11.297,1 24,1 z" style="fill:url(#linearGradient4192);fill-opacity:1"/>
 <path d="m 22 19 0 19 16 0 0 -16 -3 -3 -13 0 z" style="fill:#000;fill-opacity:0.098;stroke:none;fill-rule:evenodd"/>
 <g>
  <path d="m 40.03 7.531 c 3.712 4.084 5.969 9.514 5.969 15.469 0 12.703 -10.297 23 -23 23 c -5.954 0 -11.384 -2.256 -15.469 -5.969 4.178 4.291 10.01 6.969 16.469 6.969 c 12.703 0 23 -10.298 23 -23 0 -6.462 -2.677 -12.291 -6.969 -16.469 z" style="opacity:0.1"/>
 </g>
 <path d="m 21 18 l 0 19 l 16 0 l 0 -16 l -3 -3 l -13 0 z" style="fill:#eadcdc;fill-opacity:1;stroke:none;fill-rule:evenodd"/>
 <path d="m 12 12 0 19 16 0 0 -16 -3 -3 -13 0 z" style="fill:#000;fill-opacity:0.098;stroke:none;fill-rule:evenodd"/>
 <path d="m 22 31 14 0 0 1 -14 0 z" style="fill:#b5b5b5;fill-opacity:0.853;stroke:none;fill-rule:nonzero"/>
 <path d="m 22 23 14 0 0 1 -14 0 z" style="fill:#59bf4a;fill-opacity:1;stroke:none;fill-rule:nonzero"/>
 <path d="m 22 21 14 0 0 1 -14 0 z" style="fill:#b5b5b5;fill-opacity:0.853;stroke:none;fill-rule:nonzero"/>
 <g transform="matrix(0.61538462,0,0,0.73076921,14.230769,9.9615387)" style="fill:#c83737">
  <g transform="translate(0,-0.004)">
   <g>
    <g transform="translate(1,1)">
     <g style="opacity:0.1">
      <!-- color: #cccdb6 -->
     </g>
    </g>
   </g>
  </g>
 </g>
 <path d="m 22 25 14 0 0 1 -14 0 z" style="fill:#59bf4a;fill-opacity:1;stroke:none;fill-rule:nonzero"/>
 <path d="m 22 27 14 0 0 1 -14 0 z" style="fill:#b5b5b5;fill-opacity:0.853;stroke:none;fill-rule:nonzero"/>
 <path d="m 22 29 14 0 0 1 -14 0 z" style="fill:#b5b5b5;fill-opacity:0.853;stroke:none;fill-rule:nonzero"/>
 <path d="m 11 11 l 0 19 l 16 0 l 0 -16 l -3 -3 l -13 0 z" style="fill:#fdfbfb;fill-opacity:1;stroke:none;fill-rule:evenodd"/>
 <g transform="matrix(0.61538462,0,0,0.73076921,4.2307692,2.9586156)" style="fill:#de8787">
  <g transform="translate(1,1)">
   <g style="opacity:0.1">
    <!-- color: #cccdb6 -->
   </g>
  </g>
 </g>
 <path d="m 12 14 14 0 0 1 -14 0 z" style="fill:#b5b5b5;fill-opacity:0.853;stroke:none;fill-rule:nonzero"/>
 <path d="m 12 16 14 0 0 1 -14 0 z" style="fill:#d24c37;fill-opacity:1;stroke:none;fill-rule:nonzero"/>
 <path d="m 12 18 14 0 0 1 -14 0 z" style="fill:#d24c37;fill-opacity:1;stroke:none;fill-rule:nonzero"/>
 <path d="m 12 20 14 0 0 1 -14 0 z" style="fill:#b5b5b5;fill-opacity:0.853;stroke:none;fill-rule:nonzero"/>
 <path d="m 12 22 14 0 0 1 -14 0 z" style="fill:#b5b5b5;fill-opacity:0.853;stroke:none;fill-rule:nonzero"/>
 <path d="m 12 24 14 0 0 1 -14 0 z" style="fill:#b5b5b5;fill-opacity:0.853;stroke:none;fill-rule:nonzero"/>
 <path d="m 12 26 14 0 0 1 -14 0 z" style="fill:#b5b5b5;fill-opacity:0.853;stroke:none;fill-rule:nonzero"/>
 <path d="m 12 28 14 0 0 1 -14 0 z" style="fill:#b5b5b5;fill-opacity:0.853;stroke:none;fill-rule:nonzero"/>
 <path d="m 22 33 14 0 0 1 -14 0 z" style="fill:#b5b5b5;fill-opacity:0.853;stroke:none;fill-rule:nonzero"/>
 <path d="m 22 35 14 0 0 1 -14 0 z" style="fill:#b5b5b5;fill-opacity:0.853;stroke:none;fill-rule:nonzero"/>
</svg>

<svg xmlns="http://www.w3.org/2000/svg" viewBox="0 0 48 48">
  <defs>
    <linearGradient id="a" y1="47" x2="0" y2="1" gradientUnits="userSpaceOnUse">
      <stop stop-color="#c23257"/>
      <stop offset="1" stop-color="#cd3b61"/>
    </linearGradient>
  </defs>
  <path d="M36.31 5c5.859 4.062 9.688 10.831 9.688 18.5 0 12.426-10.07 22.5-22.5 22.5-7.669 0-14.438-3.828-18.5-9.688a23.24 23.24 0 0 0 3.781 4.969 22.923 22.923 0 0 0 15.469 5.969c12.703 0 23-10.298 23-23a22.92 22.92 0 0 0-5.969-15.469A23.216 23.216 0 0 0 36.31 5zm4.969 3.781A22.911 22.911 0 0 1 47.498 24.5c0 12.703-10.297 23-23 23a22.909 22.909 0 0 1-15.719-6.219C12.939 45.425 18.662 48 24.998 48c12.703 0 23-10.298 23-23 0-6.335-2.575-12.06-6.719-16.219z" opacity=".05"/>
  <path d="M41.28 8.781a22.923 22.923 0 0 1 5.969 15.469c0 12.703-10.297 23-23 23A22.92 22.92 0 0 1 8.78 41.281 22.911 22.911 0 0 0 24.499 47.5c12.703 0 23-10.298 23-23A22.909 22.909 0 0 0 41.28 8.781z" opacity=".1"/>
  <path d="M31.25 2.375C39.865 5.529 46 13.792 46 23.505c0 12.426-10.07 22.5-22.5 22.5-9.708 0-17.971-6.135-21.12-14.75a23 23 0 0 0 44.875-7 23 23 0 0 0-16-21.875z" opacity=".2"/>
  <path d="M24 1c12.703 0 23 10.297 23 23S36.703 47 24 47 1 36.703 1 24 11.297 1 24 1z" fill="url(#a)"/>
  <path d="M22 19v19h16V22l-3-3H22z" fill-opacity=".098" fill-rule="evenodd"/>
  <path d="M40.03 7.531A22.922 22.922 0 0 1 45.999 23c0 12.703-10.297 23-23 23A22.92 22.92 0 0 1 7.53 40.031C11.708 44.322 17.54 47 23.999 47c12.703 0 23-10.298 23-23 0-6.462-2.677-12.291-6.969-16.469z" opacity=".1"/>
  <path d="M21 18v19h16V21l-3-3H21z" fill="#eadcdc" fill-rule="evenodd"/>
  <path d="M12 12v19h16V15l-3-3H12z" fill-opacity=".098" fill-rule="evenodd"/>
  <path d="M22 31h14v1H22z" fill="#b5b5b5" fill-opacity=".853"/>
  <path d="M22 23h14v1H22z" fill="#59bf4a"/>
  <path d="M22 21h14v1H22z" fill="#b5b5b5" fill-opacity=".853"/>
  <path d="M22 25h14v1H22z" fill="#59bf4a"/>
  <path d="M22 27h14v1H22zM22 29h14v1H22z" fill="#b5b5b5" fill-opacity=".853"/>
  <path d="M11 11v19h16V14l-3-3H11z" fill="#fdfbfb" fill-rule="evenodd"/>
  <path d="M12 14h14v1H12z" fill="#b5b5b5" fill-opacity=".853"/>
  <path d="M12 16h14v1H12zM12 18h14v1H12z" fill="#d24c37"/>
  <path d="M12 20h14v1H12zM12 22h14v1H12zM12 24h14v1H12zM12 26h14v1H12zM12 28h14v1H12zM22 33h14v1H22zM22 35h14v1H22z" fill="#b5b5b5" fill-opacity=".853"/>
</svg>
